components/AnnouncementBar/logos/color-airtable.svg

<svg width="349" height="76" viewBox="0 0 349 76" fill="none" xmlns="http://www.w3.org/2000/svg">
<path d="M139.752 43.638L133.69 27.2944C133.442 26.626 132.497 26.626 132.25 27.2944L126.187 43.638C126.001 44.14 126.373 44.6737 126.908 44.6737H139.032C139.567 44.6737 139.938 44.14 139.752 43.638ZM142.553 52.8238H123.387C123.065 52.8238 122.778 53.0235 122.666 53.3247L118.893 63.4938C118.781 63.795 118.494 63.9947 118.173 63.9947H109.867C109.323 63.9947 108.951 63.4451 109.154 62.9406L128.279 15.2952C128.396 15.0043 128.678 14.8132 128.992 14.8132H136.947C137.26 14.8132 137.543 15.0043 137.66 15.2952L156.786 62.9401C156.989 63.4451 156.617 63.9947 156.073 63.9947H147.766C147.445 63.9947 147.158 63.795 147.046 63.4938L143.273 53.3247C143.161 53.0235 142.874 52.8238 142.553 52.8238ZM160.678 31.535H167.783C168.208 31.535 168.551 31.8792 168.551 32.3033V63.2266C168.551 63.6507 168.208 63.9949 167.783 63.9949H160.678C160.254 63.9949 159.909 63.6507 159.909 63.2266V32.3033C159.909 31.8792 160.254 31.535 160.678 31.535ZM194.464 39.0574C194.464 39.4815 194.12 39.8257 193.696 39.8257H193.481C189.968 39.8257 187.391 40.6688 185.752 42.3549C184.112 44.041 183.293 46.8284 183.293 50.716V63.2269C183.293 63.6509 182.949 63.9951 182.524 63.9951H175.489C175.065 63.9951 174.721 63.6509 174.721 63.2269V32.3031C174.721 31.879 175.065 31.5348 175.489 31.5348H182.454C182.879 31.5348 183.222 31.879 183.222 32.3031V38.4202H183.363C184.206 35.891 185.541 33.9482 187.368 32.5889C189.195 31.231 191.443 30.5514 194.113 30.5514H194.464V39.0574ZM213.891 38.7718C213.467 38.7718 213.123 39.116 213.123 39.5401V52.4023C213.123 53.7141 213.38 54.6503 213.896 55.2127C214.411 55.7746 215.301 56.0558 216.565 56.0558H217.273C217.697 56.0558 218.041 56.3995 218.041 56.8241V63.2967C218.041 63.7213 217.697 64.065 217.273 64.065H214.247C211.109 64.065 208.697 63.2573 207.01 61.6413C205.324 60.0253 204.481 57.6257 204.481 54.4398V39.5401C204.481 39.116 204.137 38.7718 203.712 38.7718H199.277C198.853 38.7718 198.509 38.4276 198.509 38.0035V32.3033C198.509 31.8792 198.853 31.535 199.277 31.535H203.712C204.137 31.535 204.481 31.1913 204.481 30.7667V19.3053C204.481 18.8812 204.825 18.537 205.249 18.537H212.355C212.779 18.537 213.123 18.8812 213.123 19.3053V30.7667C213.123 31.1913 213.467 31.535 213.891 31.535H219.029C219.454 31.535 219.797 31.8792 219.797 32.3033V38.0035C219.797 38.4276 219.454 38.7718 219.029 38.7718H213.891ZM246.427 54.3695C248.043 52.6833 248.851 50.4819 248.851 47.7647C248.851 45.049 248.043 42.8466 246.427 41.1605C244.811 39.4743 242.691 38.6312 240.068 38.6312C237.444 38.6312 235.326 39.4743 233.71 41.1605C232.094 42.8466 231.286 45.049 231.286 47.7647C231.286 50.4819 232.094 52.6833 233.71 54.3695C235.326 56.0556 237.444 56.8987 240.068 56.8987C242.691 56.8987 244.811 56.0556 246.427 54.3695ZM230.021 63.0112C227.632 61.6534 225.746 59.6738 224.366 57.0744C222.983 54.475 222.293 51.3721 222.293 47.7647C222.293 44.1589 222.983 41.0549 224.366 38.4556C225.746 35.8562 227.632 33.8781 230.021 32.5187C232.41 31.1604 235.033 30.4812 237.89 30.4812C240.419 30.4812 242.585 30.9729 244.389 31.9568C246.192 32.9402 247.632 34.3221 248.71 36.102H248.851V32.3031C248.851 31.879 249.195 31.5348 249.619 31.5348H256.654C257.078 31.5348 257.422 31.879 257.422 32.3031V63.2263C257.422 63.6509 257.078 63.9946 256.654 63.9946H249.619C249.195 63.9946 248.851 63.6509 248.851 63.2263V59.4279H248.71C247.632 61.2088 246.192 62.5897 244.389 63.5731C242.585 64.557 240.419 65.0487 237.89 65.0487C235.033 65.0487 232.41 64.369 230.021 63.0112ZM286.68 54.3695C288.296 52.6833 289.104 50.4819 289.104 47.7647C289.104 45.049 288.296 42.8466 286.68 41.1605C285.065 39.4743 282.945 38.6312 280.322 38.6312C277.698 38.6312 275.579 39.4743 273.963 41.1605C272.348 42.8466 271.539 45.049 271.539 47.7647C271.539 50.4819 272.348 52.6833 273.963 54.3695C275.579 56.0556 277.698 56.8987 280.322 56.8987C282.945 56.8987 285.065 56.0556 286.68 54.3695ZM276.001 63.5731C274.197 62.5897 272.757 61.2088 271.68 59.4279H271.539V63.2263C271.539 63.6509 271.196 63.9946 270.771 63.9946H263.666C263.242 63.9946 262.897 63.6509 262.897 63.2263V15.5814C262.897 15.1573 263.242 14.8131 263.666 14.8131H270.771C271.196 14.8131 271.539 15.1573 271.539 15.5814V36.102H271.68C272.757 34.3221 274.197 32.9402 276.001 31.9568C277.804 30.9729 279.97 30.4812 282.5 30.4812C285.357 30.4812 287.98 31.1604 290.369 32.5187C292.758 33.8781 294.643 35.8562 296.025 38.4556C297.406 41.0549 298.098 44.1589 298.098 47.7647C298.098 51.3721 297.406 54.475 296.025 57.0744C294.643 59.6738 292.758 61.6534 290.369 63.0112C287.98 64.369 285.357 65.0487 282.5 65.0487C279.97 65.0487 277.804 64.557 276.001 63.5731ZM310.069 63.9949H302.963C302.539 63.9949 302.195 63.6507 302.195 63.2266V15.5817C302.195 15.1576 302.539 14.8134 302.963 14.8134H310.069C310.493 14.8134 310.837 15.1576 310.837 15.5817V63.2266C310.837 63.6507 310.493 63.9949 310.069 63.9949ZM326.828 39.0529C325.65 39.9718 324.855 41.2983 324.443 43.0337C324.33 43.5121 324.703 43.971 325.195 43.971H338.717C339.186 43.971 339.555 43.551 339.479 43.088C339.209 41.4464 338.505 40.1372 337.367 39.1584C336.033 38.0111 334.287 37.4369 332.133 37.4369C329.978 37.4369 328.209 37.9757 326.828 39.0529ZM344.147 35.0127C346.911 38.0341 348.293 42.3089 348.293 47.835V48.7528C348.293 49.1774 347.949 49.5211 347.524 49.5211H324.934C324.457 49.5211 324.091 49.9555 324.174 50.4257C324.535 52.4785 325.443 54.1094 326.899 55.3176C328.561 56.7001 330.658 57.3905 333.187 57.3905C336.452 57.3905 339.475 56.1161 342.254 53.567C342.593 53.2555 343.132 53.3216 343.395 53.6996L346.849 58.6577C347.071 58.9768 347.024 59.4172 346.731 59.6733C345.037 61.1567 343.168 62.3987 341.126 63.3975C338.878 64.4977 336.231 65.0488 333.187 65.0488C329.674 65.0488 326.605 64.3338 323.983 62.9058C321.359 61.4778 319.322 59.4633 317.871 56.8634C316.418 54.2641 315.692 51.2549 315.692 47.835C315.692 44.4166 316.395 41.3957 317.8 38.7717C319.205 36.1492 321.172 34.1117 323.702 32.6591C326.231 31.2081 329.182 30.4813 332.555 30.4813C337.518 30.4813 341.383 31.9918 344.147 35.0127ZM169.478 20.1023C169.478 23.0008 167.129 25.3502 164.231 25.3502C161.332 25.3502 158.982 23.0008 158.982 20.1023C158.982 17.2038 161.332 14.8543 164.231 14.8543C167.129 14.8543 169.478 17.2038 169.478 20.1023Z" fill="#333333"/>
<path d="M40.463 0.956524L6.6791 14.9359C4.80037 15.7134 4.81983 18.3819 6.71034 19.1313L40.6356 32.5846C43.6166 33.7667 46.9361 33.7667 49.9166 32.5846L83.8423 19.1313C85.7323 18.3819 85.7523 15.7134 83.873 14.9359L50.0897 0.956524C47.0073 -0.318841 43.5449 -0.318841 40.463 0.956524Z" fill="#FCB400"/>
<path d="M48.2859 39.9311V73.5393C48.2859 75.1379 49.8978 76.2325 51.3837 75.6434L89.1868 60.9701C90.0498 60.6279 90.6158 59.7941 90.6158 58.866V25.2578C90.6158 23.6592 89.0039 22.5647 87.5181 23.1537L49.715 37.827C48.8524 38.1692 48.2859 39.003 48.2859 39.9311Z" fill="#18BFFF"/>
<path d="M39.4587 41.6652L28.2395 47.0822L27.1004 47.6328L3.41755 58.9805C1.91631 59.7047 0.000183105 58.6107 0.000183105 56.943V25.3989C0.000183105 24.7956 0.309549 24.2747 0.724427 23.8823C0.897549 23.7087 1.09372 23.5658 1.29757 23.4526C1.86355 23.113 2.67077 23.0224 3.35711 23.2938L39.2702 37.5231C41.0956 38.2473 41.2391 40.8053 39.4587 41.6652Z" fill="#F82B60"/>
<path d="M39.4587 41.6652L28.2395 47.0822L0.724426 23.8823C0.897548 23.7087 1.09372 23.5658 1.29757 23.4526C1.86355 23.113 2.67077 23.0224 3.35711 23.2938L39.2702 37.5231C41.0956 38.2473 41.2391 40.8053 39.4587 41.6652Z" fill="black" fill-opacity="0.25"/>
</svg>

<svg xmlns="http://www.w3.org/2000/svg" width="349" height="76" viewBox="0 0 349 76">
  <path fill="#333" d="m139.752 43.638-6.062-16.344c-.248-.668-1.193-.668-1.44 0l-6.063 16.344a.769.769 0 0 0 .721 1.036h12.124a.768.768 0 0 0 .72-1.036Zm2.801 9.186h-19.166a.77.77 0 0 0-.721.5l-3.773 10.17a.768.768 0 0 1-.72.5h-8.306a.768.768 0 0 1-.713-1.053l19.125-47.646a.769.769 0 0 1 .713-.482h7.955a.77.77 0 0 1 .713.482l19.126 47.645a.768.768 0 0 1-.713 1.055h-8.307a.768.768 0 0 1-.72-.501l-3.773-10.17a.768.768 0 0 0-.72-.5Zm18.125-21.289h7.105c.425 0 .768.344.768.768v30.924a.768.768 0 0 1-.768.768h-7.105a.77.77 0 0 1-.769-.768V32.303a.77.77 0 0 1 .769-.768Zm33.786 7.522a.768.768 0 0 1-.768.769h-.215c-3.513 0-6.09.843-7.729 2.529-1.64 1.686-2.459 4.473-2.459 8.361v12.51a.769.769 0 0 1-.769.77h-7.035a.768.768 0 0 1-.768-.77V32.304c0-.424.344-.768.768-.768h6.965c.425 0 .768.344.768.768v6.117h.141c.843-2.529 2.178-4.472 4.005-5.831 1.827-1.358 4.075-2.038 6.745-2.038h.351v8.506Zm19.427-.285a.768.768 0 0 0-.768.768v12.862c0 1.312.257 2.248.773 2.81.515.563 1.405.844 2.669.844h.708c.424 0 .768.344.768.768v6.473a.768.768 0 0 1-.768.768h-3.026c-3.138 0-5.55-.808-7.237-2.424-1.686-1.616-2.529-4.015-2.529-7.201v-14.9a.769.769 0 0 0-.769-.768h-4.435a.768.768 0 0 1-.768-.768v-5.7c0-.425.344-.769.768-.769h4.435a.768.768 0 0 0 .769-.768V19.305c0-.424.344-.768.768-.768h7.106c.424 0 .768.344.768.768v11.462c0 .424.344.768.768.768h5.138c.425 0 .768.344.768.768v5.7a.768.768 0 0 1-.768.769h-5.138Zm32.536 15.598c1.616-1.687 2.424-3.888 2.424-6.605 0-2.716-.808-4.918-2.424-6.605-1.616-1.686-3.736-2.529-6.359-2.529-2.624 0-4.742.843-6.358 2.53-1.616 1.686-2.424 3.888-2.424 6.604 0 2.717.808 4.918 2.424 6.605 1.616 1.686 3.734 2.529 6.358 2.529 2.623 0 4.743-.843 6.359-2.53Zm-16.406 8.641c-2.389-1.358-4.275-3.337-5.655-5.937-1.383-2.599-2.073-5.702-2.073-9.31 0-3.605.69-6.71 2.073-9.308 1.38-2.6 3.266-4.578 5.655-5.937 2.389-1.359 5.012-2.038 7.869-2.038 2.529 0 4.695.492 6.499 1.476a11.302 11.302 0 0 1 4.321 4.145h.141v-3.799c0-.424.344-.768.768-.768h7.035c.424 0 .768.344.768.768v30.923a.768.768 0 0 1-.768.769h-7.035a.768.768 0 0 1-.768-.769v-3.798h-.141a11.295 11.295 0 0 1-4.321 4.145c-1.804.984-3.97 1.476-6.499 1.476-2.857 0-5.48-.68-7.869-2.038Zm56.659-8.642c1.616-1.686 2.424-3.887 2.424-6.604 0-2.716-.808-4.918-2.424-6.605-1.615-1.686-3.735-2.529-6.358-2.529-2.624 0-4.743.843-6.359 2.53-1.615 1.686-2.424 3.888-2.424 6.604 0 2.717.809 4.918 2.424 6.605 1.616 1.686 3.735 2.529 6.359 2.529 2.623 0 4.743-.843 6.358-2.53Zm-10.679 9.204a11.28 11.28 0 0 1-4.321-4.145h-.141v3.798a.767.767 0 0 1-.768.769h-7.105a.769.769 0 0 1-.769-.769V15.581a.77.77 0 0 1 .769-.768h7.105c.425 0 .768.344.768.768v20.521h.141a11.288 11.288 0 0 1 4.321-4.145c1.803-.984 3.969-1.476 6.499-1.476 2.857 0 5.48.68 7.869 2.038 2.389 1.36 4.274 3.337 5.656 5.937 1.381 2.599 2.073 5.703 2.073 9.309 0 3.607-.692 6.71-2.073 9.31-1.382 2.599-3.267 4.578-5.656 5.936-2.389 1.358-5.012 2.038-7.869 2.038-2.53 0-4.696-.492-6.499-1.476Zm34.068.422h-7.106a.768.768 0 0 1-.768-.768V15.582a.77.77 0 0 1 .768-.769h7.106a.77.77 0 0 1 .768.769v47.645a.768.768 0 0 1-.768.768Zm16.759-24.942c-1.178.919-1.973 2.245-2.385 3.98a.769.769 0 0 0 .752.938h13.522c.469 0 .838-.42.762-.883-.27-1.642-.974-2.95-2.112-3.93-1.334-1.147-3.08-1.721-5.234-1.721-2.155 0-3.924.539-5.305 1.616Zm17.319-4.04c2.764 3.021 4.146 7.296 4.146 12.822v.918a.768.768 0 0 1-.769.768h-22.59a.773.773 0 0 0-.76.905c.361 2.052 1.269 3.683 2.725 4.892 1.662 1.382 3.759 2.073 6.288 2.073 3.265 0 6.288-1.275 9.067-3.824a.764.764 0 0 1 1.141.133l3.454 4.958a.768.768 0 0 1-.118 1.015 25.43 25.43 0 0 1-5.605 3.724c-2.248 1.1-4.895 1.652-7.939 1.652-3.513 0-6.582-.715-9.204-2.143-2.624-1.428-4.661-3.443-6.112-6.043-1.453-2.599-2.179-5.608-2.179-9.028 0-3.418.703-6.44 2.108-9.063 1.405-2.623 3.372-4.66 5.902-6.113 2.529-1.45 5.48-2.178 8.853-2.178 4.963 0 8.828 1.51 11.592 4.532Zm-174.669-14.91a5.248 5.248 0 1 1-10.495 0 5.248 5.248 0 0 1 10.495 0Z"/>
  <path fill="#FCB400" d="M40.463.957 6.679 14.936c-1.879.777-1.86 3.446.031 4.195l33.926 13.454a12.588 12.588 0 0 0 9.28 0L83.843 19.13c1.89-.75 1.91-3.418.031-4.195L50.09.956a12.589 12.589 0 0 0-9.627 0Z"/>
  <path fill="#18BFFF" d="M48.286 39.931V73.54a2.263 2.263 0 0 0 3.098 2.104L89.187 60.97a2.263 2.263 0 0 0 1.429-2.104V25.258a2.263 2.263 0 0 0-3.098-2.104L49.715 37.827a2.264 2.264 0 0 0-1.43 2.104Z"/>
  <path fill="#F82B60" d="m39.459 41.665-11.22 5.417-1.139.55-23.682 11.35C1.916 59.704 0 58.61 0 56.943V25.399c0-.603.31-1.124.724-1.517.174-.173.37-.316.574-.43a2.414 2.414 0 0 1 2.06-.158l35.912 14.23c1.826.723 1.97 3.281.189 4.141Z"/>
  <path fill="#000" fill-opacity=".25" d="m39.459 41.665-11.22 5.417-27.515-23.2c.174-.173.37-.316.574-.43a2.414 2.414 0 0 1 2.06-.158l35.912 14.23c1.826.723 1.97 3.281.189 4.141Z"/>
</svg>
